X:1
T:Title
%%score { ( 1 3 ) | ( 2 4 ) }
L:1/8
M:9/8
K:C
V:1 treble nm="Grand Piano"
V:3 treble 
V:2 bass 
V:4 bass 
V:1
 z3 z2[Q:1/4=104] [EG] [_E^F]2 [=EG] | [Ec]3- [Ec]2 [CE] [EG]2 [_E^F] | F6 F3 | B3- B2 A F2 ^F | %4
 [EG]3- [EG]2 [EG] [_E^F]2 [=EG] | [Ge]3- [Ge]2 [Fd] [Ec]2 [GB] | A6 A3 | G3- G2 c c2 [FB] | %8
[M:3/4] [Ec]6 |[M:3/8] [Ec]3 |[M:9/8] .d6 z3 | [EG]2 [Ec] [CEG]3 E3 | A3- ADE F2 F | %13
[M:5/8] E-E- E3 |[M:2/4] EE AB |[M:9/8] .c6 z3 | [EG]6 z3 | [Ge]3- [Ge][Ec]E GA[DFB] | %18
[M:5/8] [Ec]-[Ec]- [Ec]3 |] %19
V:2
 z3 z2 [C,C] [C,C]2 [C,C] | [C,G,]3- [C,G,]2 [C,G,] [C,C]2 [C,C] | [G,B,D]6 [G,B,D]3 | %3
 [G,DF]3- [G,DF]2 [G,CF][K:bass] [G,B,D]2 [G,B,_E] | [C,C]3- [C,C]2 [C,C] [C,C]2 [C,C] | %5
 [C,C]3- [C,C]2 [C,G,] [C,G,]2 [E,C] | [F,CF]6 [^F,C_E]3 | %7
 [G,CE]3- [G,CE]2 [G,EG] [G,DF]2[K:bass] [G,,G,] |[M:3/4] [C,G,]6 |[M:3/8] [C,G,]3 | %10
[M:9/8][K:treble] [G,B,F]2 [G,B,] [G,B,][G,EF][G,DF] [G,DF][G,CF][G,B,F] | [C,C]2 [C,G,] C,3 E,3 | %12
 A,3- A,D,E, F,2 [_E,A,C] |[M:5/8] [E,^G,B,]-[E,G,B,]- [E,G,B,]3 |[M:2/4] z2 z [E,^G,E] | %15
[M:9/8] [A,E]A,A, z[K:treble] AA z G[K:bass]F, | C,C,C, C,3 [C,G,]2 [C,G,] | %17
 z3 z3[K:treble] .B,3[K:bass] |[M:5/8] [C,C]-[C,C]- [C,C]3 |] %19
V:3
 x9 | x9 | x9 | x9 | x9 | x9 | x9 | x9 |[M:3/4] x6 |[M:3/8] x3 |[M:9/8] z2 F FcB BAG | x9 | x9 | %13
[M:5/8] x5 |[M:2/4] x4 |[M:9/8] z EE Ecc [Ac]B[CFA] | CCC C3 [Ec]2 [Fd] | x9 |[M:5/8] x5 |] %19
V:4
 x9 | x9 | x9 | x6[K:bass] x3 | x9 | x9 | x9 | x8[K:bass] x |[M:3/4] x6 |[M:3/8] x3 | %10
[M:9/8][K:treble] x9 | x9 | x9 |[M:5/8] x5 |[M:2/4] x4 |[M:9/8] z3 A,3[K:treble] .[F,C]3[K:bass] | %16
 x9 | [C,C]3- [C,C][C,G,][C,G,C][K:treble] G,-[G,C^F][K:bass][G,,G,] |[M:5/8] x5 |] %19

